X:39
T: ICH WEISS EIN JAEGER
N: E0019E
O: Europa, Mitteleuropa, Deutschland, Regensburg
R: Sage, Maerchen -, Zauber - Lied
M: 6/8
L: 1/16
K: Bb
F2 | B4d2d3cB2 | A4c2c6 |
B3cd2d2c2B2 | c8z2
B2 | d4f2f3ed2 | c4e2e6 |
d3dd2d2c2B2 | A4c2c6 |
B3cd2d2c2c2 | B8z2

@@@ Tune index: 3689
